X: 37734
T: Soldier's Joy
R: reel
M: 4/4
K: Dmajor
dB|A2 F2 D2 F2|DFAB d2 dB|A2 F2 D2 F2|EDEF E2
dB|A2 F2 D2 F2|DFAB d2 de|fedf egfe|dBAF D2:|
dB|defg a2 f2|e2 f2 g4|defg a2 f2|e2 c2 A4|
defg a2 f2|e2 f2 g4|fagf egfe|dBAF D2:|

